X: 153
T:Mechol Ovadia
C:Emanuel Zamir 1948
D: Hora Oranim Zabar Troupe (Elektra Records)
O:Israel
F: http://www.youtube.com/watch?v=cURaKgD19dw
F: http://www.youtube.com/watch?v=Whovvs5YRQQ
L:1/8
M:4/4
Q:1/4=120
K:Am
|:"Am"cB AB cB A2 | "F"GA FG "Am"A2 A2| cB AB cB A2    | "F"GA FG "Am"A2 A2 :|
  "Am"Ae2 e e2 e2 | z e2 e e2 e2      |"Dm"z d2 d d2 d2| z d2 d d2 d2       |\
  "Am"A c2 c c2 c2| z c2 c c2 c2      | "G"z B2 B B2 B2|"A" c/B/A- A4 z2    |



